X:1
T:Title
%%score { ( 1 4 ) | ( 2 3 ) }
L:1/8
Q:1/4=100
M:4/4
K:Eb
V:1 treble nm="Grand Piano"
V:4 treble 
V:2 bass 
V:3 bass 
V:1
 [Ge]2 [Ad]2 [Ge]2 [EG]2 | [DF][EG][FA][Ac] [GB]2 G2 | G2 B2 F2 A2 | [EG]2 .[EF]2 [B,DB]4 | %4
w: R.~Menthal * * *||||
 [Ee]2 [Ad]2 [Ge]2 [EG]2 | [DF][EG][FA][Ac] [GB]2 G2 | c2 z F G2 BA | [B,EG]2 [A,DF]2 [G,E]4 | %8
w: ||||
 [DF]3 [EG] [FA]2 [DF]2 | GABc B2 G2 | c2 F2 A2 G2 | z4 [DB]4 | e2 [Ad]2 [Ge]2 [GB]2 | %13
w: |||||
 [Fd][Ec]BF A2 G2 | c2 z F G2 BA | [B,EG]2 [A,DF]2 [G,E]4 |] %16
w: |||
V:2
 [E,B,]2 [F,B,]2 [E,B,]2 [E,B,]2 | [B,,B,]2 [B,,B,]2 [E,B,]2 [E,B,E]2 | %2
 [E,B,E]2 [G,_DE]2 [A,CE]2 [F,CE]2 | [B,,B,]2 z E B,,2 _A,2 | [G,B,]2 [F,B,]2 [E,B,]2 [E,B,]2 | %5
 [B,,B,]2 [B,,B,]2 [E,B,]2 [E,B,E]2 | [A,E]2 [A,C]2 [G,B,E]2 [F,CF]2 | B,,2 B,,2 E,4 | %8
 [B,,B,]3 [B,,B,] [B,,B,]2 [B,,B,]2 | B,CG,A, [E,G,E]2 [E,B,E]2 | %10
 [A,E]2 [A,CE]2 [F,B,D]2 [E,B,E]2 | [F,B,D]2 [F,CE]2 B,4 | [G,B,E]2 [F,B,]2 [E,B,]2 [E,B,]2 | %13
 [B,,B,]2 [B,,B,]2 [E,CE]2 [E,B,E]2 | [A,E]2 [A,C]2 [G,B,E]2 [F,CF]2 | B,,2 B,,2 E,4 |] %16
V:3
 x8 | x8 | x8 | z2 [C,=A,]2 z4 | x8 | x8 | x8 | x8 | x8 | [E,E]2 [E,E]2 z4 | x8 | z4 B,,2 z2 | x8 | %13
 x8 | x8 | x8 |] %16
V:4
 x8 | x8 | x8 | x8 | x8 | x8 | z2 E2 z4 | x8 | x8 | x8 | x8 | F2 =A2 z2 A,2 | x8 | z2 D2 z4 | %14
 z2 E2 z4 | x8 |] %16

